X: 171
T: Gege song mezi
L: 1/8
M: 2/4
K: F
F2F D [I:setbarnb 1]| 
C2C2 | 
c2f d | 
c2c A | 
f A A G | 
A GF2 | 
G A D F | 
G4 | 
G AC2 | 
c d c A | 
c2D F | 
G A G F | 
c2D F | 
G A G F | 
D C F D | 
C4 |]

@@@ Tune index: 9045
